aloe_vera/img/advantages_7.svg

<svg width="65" height="65" viewBox="0 0 65 65" fill="none" xmlns="http://www.w3.org/2000/svg">
<path d="M48.1156 44.2119H16.8851V63.7322H48.1156V44.2119Z" fill="#FF5A6A"/>
<path d="M48.1152 40.2099V44.2113H16.8848V40.2099C16.8848 38.1076 18.5886 36.4038 20.6908 36.4038H44.3091C46.4113 36.4038 48.1152 38.1076 48.1152 40.2099Z" fill="#CFD9DD"/>
<path d="M22.7402 36.404V1.26868H42.2598V36.404" fill="#4A545D"/>
<path d="M44.3094 35.1352H43.5284V1.26864C43.5284 0.568115 42.9603 0 42.2598 0H22.7402C22.0396 0 21.4716 0.568115 21.4716 1.26864V35.1352H20.6906C17.8923 35.1352 15.6157 37.4117 15.6157 40.21V63.7312C15.6157 64.4318 16.1837 64.9999 16.8844 64.9999H48.1156C48.8161 64.9999 49.3843 64.4318 49.3843 63.7312V40.21C49.3843 37.4118 47.1077 35.1352 44.3094 35.1352ZM46.8468 40.21V42.943H33.7686V37.6726H44.3094C45.7087 37.6726 46.8468 38.8108 46.8468 40.21ZM24.009 2.53741H40.9911V35.1352H24.009V2.53741ZM20.6906 37.6726H31.2314V42.943H18.1532V40.21C18.1532 38.8108 19.2914 37.6726 20.6906 37.6726ZM18.1532 62.4626V45.4803H31.2314V50.8485C31.2314 51.5491 31.7993 52.1172 32.5 52.1172C33.2005 52.1172 33.7686 51.5491 33.7686 50.8485V45.4803H46.8468V62.4625H18.1532V62.4626Z" fill="black"/>
<path d="M33.671 55.4381C33.6393 55.3619 33.6012 55.2884 33.5543 55.2186C33.5088 55.15 33.4556 55.0841 33.397 55.0257C33.3386 54.9673 33.274 54.9142 33.2042 54.8685C33.1357 54.8229 33.0621 54.7834 32.9847 54.7518C32.9085 54.72 32.8288 54.696 32.7474 54.6794C32.5838 54.6464 32.4163 54.6464 32.2527 54.6794C32.1714 54.696 32.0916 54.72 32.0141 54.7518C31.938 54.7835 31.8645 54.823 31.7959 54.8685C31.7261 54.9142 31.6615 54.9673 31.6031 55.0257C31.5447 55.0841 31.4915 55.1499 31.4458 55.2186C31.4001 55.2885 31.3607 55.362 31.3291 55.4381C31.2974 55.5141 31.272 55.594 31.2555 55.6754C31.239 55.7578 31.2314 55.8403 31.2314 55.9241C31.2314 56.0065 31.239 56.089 31.2555 56.1715C31.272 56.2528 31.2974 56.3326 31.3291 56.4088C31.3608 56.4849 31.4002 56.5585 31.4458 56.6282C31.4915 56.6967 31.5447 56.7613 31.6031 56.8197C31.6615 56.8795 31.7261 56.9313 31.7959 56.9783C31.8645 57.024 31.938 57.0633 32.0141 57.095C32.0916 57.1267 32.1714 57.1508 32.2527 57.1673C32.3339 57.1838 32.4176 57.1927 32.5001 57.1927C32.5826 57.1927 32.6663 57.1838 32.7476 57.1673C32.8288 57.1508 32.9087 57.1267 32.9848 57.095C33.0623 57.0632 33.1358 57.0239 33.2043 56.9783C33.2742 56.9313 33.3388 56.8795 33.3972 56.8197C33.6332 56.5838 33.769 56.2577 33.769 55.9241C33.769 55.8403 33.7601 55.7578 33.7436 55.6754C33.7281 55.594 33.7028 55.5141 33.671 55.4381Z" fill="black"/>
</svg>

<svg width="65" height="65" fill="none" xmlns="http://www.w3.org/2000/svg"><path d="M48.116 44.212h-31.23v19.52h31.23v-19.52z" fill="#FF5A6A"/><path d="M48.115 40.21v4.001h-31.23V40.21a3.806 3.806 0 013.806-3.806h23.618a3.806 3.806 0 013.806 3.806z" fill="#CFD9DD"/><path d="M22.74 36.404V1.269h19.52v35.135" fill="#4A545D"/><path d="M44.31 35.135h-.782V1.27A1.27 1.27 0 0042.26 0H22.74c-.7 0-1.268.568-1.268 1.269v33.866h-.781a5.08 5.08 0 00-5.075 5.075v23.521c0 .7.568 1.269 1.268 1.269h31.232c.7 0 1.268-.568 1.268-1.269V40.21a5.08 5.08 0 00-5.075-5.075zm2.537 5.075v2.733H33.769v-5.27h10.54a2.54 2.54 0 012.538 2.537zM24.009 2.537h16.982v32.598H24.01V2.537zm-3.318 35.136h10.54v5.27H18.153V40.21a2.54 2.54 0 012.538-2.537zm-2.538 24.79V45.48h13.078v5.369a1.269 1.269 0 102.538 0V45.48h13.078v16.983H18.153z" fill="#000"/><path d="M33.671 55.438a1.257 1.257 0 00-.924-.759 1.248 1.248 0 00-.733.073 1.302 1.302 0 00-.41.274 1.266 1.266 0 00-.275.412 1.28 1.28 0 00-.098.486 1.258 1.258 0 00.565 1.054 1.288 1.288 0 00.704.215 1.25 1.25 0 00.485-.098 1.258 1.258 0 00.412-.275 1.275 1.275 0 00.347-1.145 1.199 1.199 0 00-.073-.237z" fill="#000"/></svg>
